X: 40632
T: Toormore, The
R: slide
M: 12/8
K: Adorian
|:G|E2 A AAA c2 d e2 c|d3- d2 A B2 d g2 A|
E2 A AAA c2 d e2 c|d2 c A2 G A3- A2:|
|:d|ege d2 B c2 A B2 c|AAA G2 A A2 G E2 A|
E2 A AAA c2 d e2 c|d2 c A2 G A3- A2:|

